/* XPM */
static char *scholarlog[] = {
/* columns rows colors chars-per-pixel */
"256 256 60 1 ",
"  c black",
". c gray5",
"X c #161616",
"o c #1D1D1D",
"O c gray13",
"+ c #272727",
"@ c #2A2A2A",
"# c gray18",
"$ c #313131",
"% c #373737",
"& c gray22",
"* c #3F3F3F",
"= c #434343",
"- c #444444",
"; c #494949",
": c gray31",
"> c gray32",
", c #555555",
"< c gray35",
"1 c #5F5F5F",
"2 c gray38",
"3 c #646464",
"4 c #6A6A6A",
"5 c #6D6D6D",
"6 c gray44",
"7 c #777777",
"8 c #797979",
"9 c gray50",
"0 c #838383",
"q c gray53",
"w c #888888",
"e c gray55",
"r c #929292",
"t c #959595",
"y c #989898",
"u c #9D9D9D",
"i c gray63",
"p c gray65",
"a c #AAAAAA",
"s c #ACACAC",
"d c #B2B2B2",
"f c gray71",
"g c gray73",
"h c #BCBCBC",
"j c #C0C0C0",
"k c #C6C6C6",
"l c #C8C8C8",
"z c #CDCDCD",
"x c LightGray",
"c c gray84",
"v c gray85",
"b c gainsboro",
"n c #E1E1E1",
"m c #E6E6E6",
"M c gray91",
"N c #ECECEC",
"B c gray95",
"V c gray96",
"C c #F9F9F9",
"Z c gray99",
/* pixels */
"                                                                                                                                                                                                                                                                ",
"                                                                                                                                                                                                                                                                ",
"                                                                                                                                                                                                                                                                ",
"                                                                                                                                                                                                                                                                ",
"                                                                                                                                                                                                                                                                ",
"                                                                                                                                                                                                                                                                ",
"                                                                                                                                                                                                                                                                ",
"                                                                                                                                                                                                                                                                ",
"                                                                                                                                                                                                                                                                ",
"                                                                                                                                                                                                                                                                ",
"                                                                                                                                                                                                                                                                ",
"                                                                                                                                                                                                                                                                ",
"                                                                                                                                                                                                                                                                ",
"                                                                                                                                                                                                                                                                ",
"                                                                                                                                                                                                                                                                ",
"                                                                                                                                                                                                                                                                ",
"                                                                                                                                                                                                                                                                ",
"                                                                                                                                                                                                                                                                ",
"                                                                                                                                                                                                                                                                ",
"                                                                                                                                                                                                                                                                ",
"                                                                                                                                                                                                                                                                ",
"                                                                                                                                                                                                                                                                ",
"                                                                                                                                                                                                                                                                ",
"                                                                                                                                                                                                                                                                ",
"                                                                                                                                                                                                                                                                ",
"                                                                                                                                                                                                                                                                ",
"                                                                                                                          *rzMNmk9O                                                                                                                             ",
"                                                                                                                        @wbZZZZZZZv6                                                                                                                            ",
"                                                                                                                     .$7xZZZZZZZZZZZz3+.                                                                                                                        ",
"                                                                                                                   .&5kZZZZZZZZZZZZZZVh3&.                                                                                                                      ",
"                                                                                                                  *6gCZZZZZZZZZZZZZZZZZNd4&                                                                                                                     ",
"                                                                                                                &6dNZZZZZZZZZZZZZZZZZZZZZma5%                                                                                                                   ",
"                                                                                                              &7smZZZZZZZZZZZZZZZZZZZZZZZZCbp4@                                                                                                                 ",
"                                                                                                            #5abCZZZZZZZZZZZZZZZZZZZZZZZZZZZCci2o                                                                                                               ",
"                                                                                                          o3pcVZZZZZZZZZZZZZZZZZZZZZZZZZZZZZZZVxu>                                                                                                              ",
"                                                                                                        .>ixBZZZZZZZZZZZZZZZZZZZZZZZZZZZZZZZZZZZBzy=                                                                                                            ",
"                                                                                                       %yxNZZZZZZZZZZZZZZZZZZZZZZZZZZZZZZZZZZZZZZZNlr$                                                                                                          ",
"                                                                                                     OwxNZZZZZZZZZZZZZZZZZZZZZZZZZZZZZZZZZZZZZZZZZZZMkqO                                                                                                        ",
"                                                                                                   .9zNZZZZZZZZZZZZZZZZZZZZZZZZZZZZZZZZZZZZZZZZZZZZZZCMj7.                                                                                                      ",
"                                                                                                  4kNCZZZZZZZZZZZZZZZZZZZZZZZZZZZZZZZZZZZZZZZZZZZZZZZZZCmg2                                                                                                     ",
"                                                                                                1gNCZZZZZZZZZZZZZZZZZZZZZZZZZZZZZZZZZZZZZZZZZZZZZZZZZZZZZCms:                                                                                                   ",
"                                                                                              ;pMZZZZZZZZZZZZZZZZZZZZZZZZZZZZZZZZZZZZZZZZZZZZZZZZZZZZZZZZZZZmy$                                                                                                 ",
"                                                                                           .*umZZZZZZZZZZZZZZZZZZZZZZZZZZZZZVkuvCZZZZZZZZZZZZZZZZZZZZZZZZZZZZZb9o                                                                                               ",
"                                                                                         X=qcZZZZZZZZZZZZZZZZZZZZZZZZZZZZZVcqX ornCZZZZZZZZZZZZZZZZZZZZZZZZZZZZZx6%.                                                                                            ",
"                                                                                       .-9zZZZZZZZZZZZZZZZZZZZZZZZZZZZZZVbt@     #imCZZZZZZZZZZZZZZZZZZZZZZZZZZZZCk7=.                                                                                          ",
"                                                                                      -9jCZZZZZZZZZZZZZZZZZZZZZZZZZZZZVnp*         *smCZZZZZZZZZZZZZZZZZZZZZZZZZZZZBg7=                                                                                         ",
"                                                                                    =9gBZZZZZZZZZZZZZZZZZZZZZZZZZZZZVnd:            .1gmCZZZZZZZZZZZZZZZZZZZZZZZZZZZZMd7*                                                                                       ",
"                                                                                  *9fMZZZZZZZZZZZZZZZZZZZZZZZZZZZZCng1                O7jmCZZZZZZZZZZZZZZZZZZZZZZZZZZZCns6$                                                                                     ",
"                                                                                $7dnZZZZZZZZZZZZZZZZZZZZZZZZZZZZCmh7X                   &qjMCZZZZZZZZZZZZZZZZZZZZZZZZZZZCva4O                                                                                   ",
"                                                                              +5sbCZZZZZZZZZZZZZZZZZZZZZZZZZZZZmhq%                       -ekNZZZZZZZZZZZZZZZZZZZZZZZZZZZZVca1.                                                                                 ",
"                                                                            X<avVZZZZZZZZZZZZZZZZZZZZZZZZZZZZNje-                           >tlBZZZZZZZZZZZZZZZZZZZZZZZZZZZZBxi-                                                                                ",
"                                                                           =icBZZZZZZZZZZZZZZZZZZZZZZZZZZZZBlr>.                             .<tzCZZZZZZZZZZZZZZZZZZZZZZZZZZZZNxy%                                                                              ",
"                                                                         OtvNZZZZZZZZZZZZZZZZZZZZZZZZZZZZCxr<X                                 X2ycZZZZZZZZZZZZZZZZZZZZZZZZZZZZZNzeO                                                                            ",
"                                                                       .qcBZZZZZZZZZZZZZZZZZZZZZZZZZZZZZvr1o                                     O2ubZZZZZZZZZZZZZZZZZZZZZZZZZZZZZNl9X                                                                          ",
"                                                                      6zBZZZZZZZZZZZZZZZZZZZZZZZZZZZZZmt<O                                         @2pMZZZZZZZZZZZZZZZZZZZZZZZZZZZZCNj4                                                                         ",
"                                                                    3jBZZZZZZZZZZZZZZZZZZZZZZZZZZZZZMi:O                                             @2dBZZZZZZZZZZZZZZZZZZZZZZZZZZZZZNf>                                                                       ",
"                                                                  >dNZZZZZZZZZZZZZZZZZZZZZZZZZZZZZBf;.                                                 X2jVZZZZZZZZZZZZZZZZZZZZZZZZZZZZZMi&                                                                     ",
"                                                               o:iMZZZZZZZZZZZZZZZZZZZZZZZZZZZZZBk3                                                       7xVZZZZZZZZZZZZZZZZZZZZZZZZZZZZZne&.                                                                  ",
"                                                             o>tbZZZZZZZZZZZZZZZZZZZZZZZZZZZZZBz9X                                                         XwvVZZZZZZZZZZZZZZZZZZZZZZZZZZZZZc9;X                                                                ",
"                                                           .>exZZZZZZZZZZZZZZZZZZZZZZZZZZZZZBce@                                                             @ybVZZZZZZZZZZZZZZZZZZZZZZZZZZZZZz0:.                                                              ",
"                                                          :wlCZZZZZZZZZZZZZZZZZZZZZZZZZZZZVvu&                                                                 &anVZZZZZZZZZZZZZZZZZZZZZZZZZZZZVj0;.                                                            ",
"                                                        ;wjVZZZZZZZZZZZZZZZZZZZZZZZZZZZZVba;                                                                     ,dnVZZZZZZZZZZZZZZZZZZZZZZZZZZZZNg0-                                                           ",
"                                                      -qhNZZZZZZZZZZZZZZZZZZZZZZZZZZZZVbd<                                                                        o5gnCZZZZZZZZZZZZZZZZZZZZZZZZZZZZmf9&                                                         ",
"                                                    &9gmZZZZZZZZZZZZZZZZZZZZZZZZZZZZCbd4                                                                            #9hmZZZZZZZZZZZZZZZZZZZZZZZZZZZZCnd7@                                                       ",
"                                                  @7fnCZZZZZZZZZZZZZZZZZZZZZZZZZZZCnf9@                                                                               *qhMZZZZZZZZZZZZZZZZZZZZZZZZZZZZVbs3X                                                     ",
"                                                o3dbVZZZZZZZZZZZZZZZZZZZZZZZZZZZZMg0*                                                                                   ;wjNZZZZZZZZZZZZZZZZZZZZZZZZZZZZVva:                                                    ",
"                                              .>abVZZZZZZZZZZZZZZZZZZZZZZZZZZZZBjq;.                                                                                     .,elVZZZZZZZZZZZZZZZZZZZZZZZZZZZZBvi%                                                  ",
"                                             +ubVZZZZZZZZZZZZZZZZZZZZZZZZZZZZVlw>X                                                                                         X<exZZZZZZZZZZZZZZZZZZZZZZZZZZZZZBct+                                                ",
"                                           .wbVZZZZZZZZZZZZZZZZZZZZZZZZZZZZZcw>X                                                                                             o,evZZZZZZZZZZZZZZZZZZZZZZZZZZZZZBxqX                                              ",
"                                          8cVZZZZZZZZZZZZZZZZZZZZZZZZZZZZZnw;o                                                                                                 o,ynZZZZZZZZZZZZZZZZZZZZZZZZZZZZZBl6                                             ",
"                                        4zVZZZZZZZZZZZZZZZZZZZZZZZZZZZZZMt%X                                                                                                     o>aNZZZZZZZZZZZZZZZZZZZZZZZZZZZZZBh1                                           ",
"                                     X1gBZZZZZZZZZZZZZZZZZZZZZZZZZZZZZNs%                                                                                                           <gBZZZZZZZZZZZZZZZZZZZZZZZZZZZZZNa:.                                        ",
"                                   +1aMZZZZZZZZZZZZZZZZZZZZZZZZZZZZZNh<                                                                                                               5kBZZZZZZZZZZZZZZZZZZZZZZZZZZZZZmu>o                                      ",
"                                 +1unZZZZZZZZZZZZZZZZZZZZZZZZZZZZCNk6X                                                                                                                 X0xBZZZZZZZZZZZZZZZZZZZZZZZZZZZZZbe,o                                    ",
"                               X1ycZZZZZZZZZZZZZZZZZZZZZZZZZZZZZNzq+                                                                                                                     +rvBZZZZZZZZZZZZZZZZZZZZZZZZZZZZZxe,X                                  ",
"                             .<rzCZZZZZZZZZZZZZZZZZZZZZZZZZZZZBxt%                                                                                                                         &uvBZZZZZZZZZZZZZZZZZZZZZZZZZZZZCle,.                                ",
"                            >rlCZZZZZZZZZZZZZZZZZZZZZZZZZZZZBci-                                                                                                                             ;avBZZZZZZZZZZZZZZZZZZZZZZZZZZZZBje:                               ",
"                          :rkBZZZZZZZZZZZZZZZZZZZZZZZZZZZZVca>                                                                                                                                .2sbVZZZZZZZZZZZZZZZZZZZZZZZZZZZZMhq=                             ",
"                        =wjMZZZZZZZZZZZZZZZZZZZZZZZZZZZZVva2                                                                                                                                    +6fnCZZZZZZZZZZZZZZZZZZZZZZZZZZZCmg9$                           ",
"                      $9hmCZZZZZZZZZZZZZZZZZZZZZZZZZZZCns6o                                                                                                                                       &9gmZZZZZZZZZZZZZZZZZZZZZZZZZZZZCnf6O                         ",
"                    O5gnCZZZZZZZZZZZZZZZZZZZZZZZZZZZZmd8%                                                                                                                                           =0gMZZZZZZZZZZZZZZZZZZZZZZZZZZZZVnd<.                       ",
"                  .<dnVZZZZZZZZZZZZZZZZZZZZZZZZZZZZMg9=.                                                                                                                                             .:qjBZZZZZZZZZZZZZZZZZZZZZZZZZZZZVba*                      ",
"                 &pnVZZZZZZZZZZZZZZZZZZZZZZZZZZZZBj9-.                                                                                                                                                 .>0lCZZZZZZZZZZZZZZZZZZZZZZZZZZZZVbu@                    ",
"               XrnVZZZZZZZZZZZZZZZZZZZZZZZZZZZZCz9-X                                                                                                                                                     X;0cZZZZZZZZZZZZZZZZZZZZZZZZZZZZZVveX                  ",
"              9bCZZZZZZZZZZZZZZZZZZZZZZZZZZZZZb0&X                                                                                                                                                         X=enZZZZZZZZZZZZZZZZZZZZZZZZZZZZZVx8.                ",
"            6xCZZZZZZZZZZZZZZZZZZZZZZZZZZZZZmqX                                                                                                                                                               &uMZZZZZZZZZZZZZZZZZZZZZZZZZZZZZVk3               ",
"         +6lVZZZZZZZZZZZZZZZZZZZZZZZZZZZZZmtO                                                                            X-rzMVNxr-o                                                                            :dNZZZZZZZZZZZZZZZZZZZZZZZZZZZZZBf1o            ",
"        =aNZZZZZZZZZZZZZZZZZZZZZZZZZZZZCMa-                                                                             O8cZZZZZZZnr:o                                                                            3jNZZZZZZZZZZZZZZZZZZZZZZZZZZZZZne#           ",
"       *sBZZZZZZZZZZZZZZZZZZZZZZZZZZZCMg2.                                                                             o8nZZZZZZZZZZce,o                                                                           X8lNZZZZZZZZZZZZZZZZZZZZZZZZZZZZNeO          ",
"      orMZZZZZZZZZZZZZZZZZZZZZZZZZZCMj7o                                                                               >xZZZZZZZZZZZZCze,X                                                                           +wzNZZZZZZZZZZZZZZZZZZZZZZZZZZZn2.         ",
"      >kZZZZZZZZZZZZZZZZZZZZZZZZZZMkq@                                                                                orZZZZZZZZZZZZZZZBkw>.                                                                           %ycBZZZZZZZZZZZZZZZZZZZZZZZZZZp+         ",
"      9mZZZZZZZZZZZZZZZZZZZZZZZZNlr&                                                                                  %lZZZZZZZZZZZZZZZZZMhw-                                                                            -icBZZZZZZZZZZZZZZZZZZZZZZZZb*         ",
"      eVZZZZZZZZZZZZZZZZZZZZZZBzy;                                                                                    =mZZZZZZZZZZZZZZZZZZCmg0%                                                                            ,pcVZZZZZZZZZZZZZZZZZZZZZZV-         ",
"      rCZZZZZZZZZZZZZZZZZZZZZZn8                                                                                      =NZZZZZZZZZZZZZZZZZZZZCng7O                                                                           #yMZZZZZZZZZZZZZZZZZZZZZZC;         ",
"      eVZZZZZZZZZZZZZZZZZZZZZZBcp:                                                                                    =mZZZZZZZZZZZZZZZZZZZZZZVbd2                                                                         1dnVZZZZZZZZZZZZZZZZZZZZZZB-         ",
"      9mZZZZZZZZZZZZZZZZZZZZZZZZBcy=                                                                                  %zZZZZZZZZZZZZZZZZZZZZZZZZVbs;                                                                     -abVZZZZZZZZZZZZZZZZZZZZZZZZv&         ",
"      :jZZZZZZZZZZZZZZZZZZZZZZZZZZBxe$                                                                                orZZZZZZZZZZZZZZZZZZZZZZZZZZVbi*                                                                 &ibVZZZZZZZZZZZZZZZZZZZZZZZZZZuO         ",
"      XwmZZZZZZZZZZZZZZZZZZZZZZZZZZZBz8o                                                                               ,cZZZZZZZZZZZZZZZZZZZZZZZZZZZVvt@                                                             +rvVZZZZZZZZZZZZZZZZZZZZZZZZZZZv1          ",
"       #pBZZZZZZZZZZZZZZZZZZZZZZZZZZZZBj3.                                                                             X8mZZZZZZZZZZZZZZZZZZZZZZZZZZZZVc0X                                                         X9xVZZZZZZZZZZZZZZZZZZZZZZZZZZZZM0X          ",
"        @uMZZZZZZZZZZZZZZZZZZZZZZZZZZZZZBd;                                                                             X7vZZZZZZZZZZZZZZZZZZZZZZZZZZZZZVl5                                                       4kVZZZZZZZZZZZZZZZZZZZZZZZZZZZZZb9o           ",
"          1jVZZZZZZZZZZZZZZZZZZZZZZZZZZZZZNi&X                                                                            -aNZZZZZZZZZZZZZZZZZZZZZZZZZZZZZBg1o                                                 X<fBZZZZZZZZZZZZZZZZZZZZZZZZZZZZZNs;             ",
"            5lBZZZZZZZZZZZZZZZZZZZZZZZZZZZZZMt;O                                                                            <gNZZZZZZZZZZZZZZZZZZZZZZZZZZZZZNs1@                                             O,imZZZZZZZZZZZZZZZZZZZZZZZZZZZZZNh1               ",
"              8xBZZZZZZZZZZZZZZZZZZZZZZZZZZZZZnr,O                                                                            4jNZZZZZZZZZZZZZZZZZZZZZZZZZZZZZMi2+                                         o<tbZZZZZZZZZZZZZZZZZZZZZZZZZZZZZNl7                 ",
"               .wvBZZZZZZZZZZZZZZZZZZZZZZZZZZZZCxe<o                                                                           .9zNZZZZZZZZZZZZZZZZZZZZZZZZZZZZZny3O                                     o<rcZZZZZZZZZZZZZZZZZZZZZZZZZZZZZNxqX                  ",
"                 %uvBZZZZZZZZZZZZZZZZZZZZZZZZZZZZVle,X                                                                           owxNZZZZZZZZZZZZZZZZZZZZZZZZZZZZZcy3o                                 .,rlCZZZZZZZZZZZZZZZZZZZZZZZZZZZZNcr+                    ",
"                  .>pvVZZZZZZZZZZZZZZZZZZZZZZZZZZZZNke:.                                                                           #txNZZZZZZZZZZZZZZZZZZZZZZZZZZZZVxy1.                              >rkBZZZZZZZZZZZZZZZZZZZZZZZZZZZZBcu%                      ",
"                    o4dbCZZZZZZZZZZZZZZZZZZZZZZZZZZZZMhw&                                                                            ;ixBZZZZZZZZZZZZZZZZZZZZZZZZZZZZBlt,                           -wjNZZZZZZZZZZZZZZZZZZZZZZZZZZZZVva,.                       ",
"                      $8gnCZZZZZZZZZZZZZZZZZZZZZZZZZZZZmg9O                                                                           o2pcVZZZZZZZZZZZZZZZZZZZZZZZZZZZZNkr=                       &0hmZZZZZZZZZZZZZZZZZZZZZZZZZZZZCvd5O                         ",
"                        *0gMZZZZZZZZZZZZZZZZZZZZZZZZZZZZCnf4                                                                            @5abCZZZZZZZZZZZZZZZZZZZZZZZZZZZZMj0#                   +7gnCZZZZZZZZZZZZZZZZZZZZZZZZZZZCnd7$                           ",
"                          -qhBZZZZZZZZZZZZZZZZZZZZZZZZZZZZCbf<                                                                            %7snZZZZZZZZZZZZZZZZZZZZZZZZZZZZCmj6X               .2dnVZZZZZZZZZZZZZZZZZZZZZZZZZZZZMg9=                             ",
"                            >qkCZZZZZZZZZZZZZZZZZZZZZZZZZZZZVbs;                                                                            &7dMZZZZZZZZZZZZZZZZZZZZZZZZZZZZCmg,             -anVZZZZZZZZZZZZZZZZZZZZZZZZZZZZBj9;                               ",
"                             .>qzCZZZZZZZZZZZZZZZZZZZZZZZZZZZZVbu&                                                                            =7gVZZZZZZZZZZZZZZZZZZZZZZZZZZZZCmd-         %unVZZZZZZZZZZZZZZZZZZZZZZZZZZZZCl9:.                                ",
"                               X:evZZZZZZZZZZZZZZZZZZZZZZZZZZZZZVve+                                                                           .*6kZZZZZZZZZZZZZZZZZZZZZZZZZZZZZCmp$     OebVZZZZZZZZZZZZZZZZZZZZZZZZZZZZZc8;.                                  ",
"                                 o;ymZZZZZZZZZZZZZZZZZZZZZZZZZZZZZVl5.                                                                           .%9cZZZZZZZZZZZZZZZZZZZZZZZZZZZZZCvwo XqvVZZZZZZZZZZZZZZZZZZZZZZZZZZZZZv9*.                                    ",
"                                    aZZZZZZZZZZZZZZZZZZZZZZZZZZZZZZZVh,                                                                             @wnZZZZZZZZZZZZZZZZZZZZZZZZZZZZZCxuzCZZZZZZZZZZZZZZZZZZZZZZZZZZZZZZZ4                                       ",
"                                    aZZZZZZZZZZZZZZZZZZZZZZZZZZZZZZZZZBf,+                                                                            *ynZZZZZZZZZZZZZZZZZZZZZZZZZZZZZZZZZZZZZZZZZZZZZZZZZZZZZZZZZZZZZZZ5                                       ",
"                                    aZZZZZZZZZZZZZZZZZZZZZZZZZZZZZZZZZZZMi<@                                                                            ,dmCZZZZZZZZZZZZZZZZZZZZZZZZZZZZZZZZZZZZZZZZZZZZZZZZZZZZZZZZZZZZ4                                       ",
"                                    aZZZZZZZZZZZZZZZZZZZZZZZZZZZZZZZZZZZZZmy2+                                                                            2gmCZZZZZZZZZZZZZZZZZZZZZZZZZZZZZZZZZZZZZZZZZZZZZZZZZZZZZZZZZZ4                                       ",
"                                    aZZZZZZZZZZZZZZZZZZZZZZZZZZZZZZZZZZZZZZZvy2O                                                                           .6jMCZZZZZZZZZZZZZZZZZZZZZZZZZZZZZZZZZZZZZZZZZZZZZZZZZZZZZZZZ4                                       ",
"                                    aZZZZZZZZZZZZZZZZZZZZZZZZZZZZZZZZZZZZZZZZVxt1X                                                                           o0lMZZZZZZZZZZZZZZZZZZZZZZZZZZZZZZZZZZZZZZZZZZZZZZZZZZZZZZZ4                                       ",
"                                    aZZZZZZZZZZZZZZZZZZZZZZZZZZZZZZZZZZZZZZZZZZBlt,.                                                                           #ezNZZZZZZZZZZZZZZZZZZZZZZZZZZZZZZZZZZZZZZZZZZZZZZZZZZZZZ4                                       ",
"                                    aZZZZZZZZZZZZZZCVZZZZZZZZZZZZZZZZZZZZZZZZZZZZNke*                                                                            =yzBZZZZZZZZZZZZZZZZZZZZZZZZZZZZZZZZZZZBZZZZZZZZZZZZZZZ4                                       ",
"                                    aZZZZZZZZZZZZZZvsvCZZZZZZZZZZZZZZZZZZZZZZZZZZZZmjq#                                                                           X1ixBZZZZZZZZZZZZZZZZZZZZZZZZZZZZZZZVciBZZZZZZZZZZZZZZ4                                       ",
"                                    aZZZZZZZZZZZZZZl$7snZZZZZZZZZZZZZZZZZZZZZZZZZZZZCmh6                                                                            =iMZZZZZZZZZZZZZZZZZZZZZZZZZZZZZCvp4@MZZZZZZZZZZZZZZ4                                       ",
"                                    aZZZZZZZZZZZZZZk  *8dMZZZZZZZZZZZZZZZZZZZZZZZZZZZZCmh1                                                                        o6jMCZZZZZZZZZZZZZZZZZZZZZZZZZZZCna5$  MZZZZZZZZZZZZZZ4                                       ",
"                                    aZZZZZZZZZZZZZZk    *7fVZZZZZZZZZZZZZZZZZZZZZZZZZZZZCmd:                                                                     <gMCZZZZZZZZZZZZZZZZZZZZZZZZZZZZMd6&    MZZZZZZZZZZZZZZ4                                       ",
"                                    aZZZZZZZZZZZZZZk      =6jCZZZZZZZZZZZZZZZZZZZZZZZZZZZZVnp*                                                                 *dMCZZZZZZZZZZZZZZZZZZZZZZZZZZZZVg5*      MZZZZZZZZZZZZZZ4                                       ",
"                                    aZZZZZZZZZZZZZZk       .*8zZZZZZZZZZZZZZZZZZZZZZZZZZZZZZCbt@                                                             #iMCZZZZZZZZZZZZZZZZZZZZZZZZZZZZCk4&.       MZZZZZZZZZZZZZZ4                                       ",
"                                    aZZZZZZZZZZZZZZl         .$0vZZZZZZZZZZZZZZZZZZZZZZZZZZZZZCv0X                                                         XenZZZZZZZZZZZZZZZZZZZZZZZZZZZZZZx4O          MZZZZZZZZZZZZZZ4                                       ",
"                                    aZZZZZZZZZZZZZZl            *umZZZZZZZZZZZZZZZZZZZZZZZZZZZZZVk4+.                                                   .@0cCZZZZZZZZZZZZZZZZZZZZZZZZZZZZZb0o            MZZZZZZZZZZZZZZ4                                       ",
"                                    aZZZZZZZZZZZZZZl              :amCZZZZZZZZZZZZZZZZZZZZZZZZZZZZVh4$                                                X&8lVZZZZZZZZZZZZZZZZZZZZZZZZZZZZZZZ0              MZZZZZZZZZZZZZZ4                                       ",
"                                    aZZZZZZZZZZZZZZl                2gMCZZZZZZZZZZZZZZZZZZZZZZZZZZZZNs4$                                            .*7gBZZZZZZZZZZZZZZZZZZZZZZZZZZZZZZZZZ0              MZZZZZZZZZZZZZZ4                                       ",
"                                    aZZZZZZZZZZZZZZl                  4jMZZZZZZZZZZZZZZZZZZZZZZZZZZZZZMp4#                                         %7dMZZZZZZZZZZZZZZZZZZZZZZZZZZZZZZZZZZZ0              MZZZZZZZZZZZZZZ4                                       ",
"                                    aZZZZZZZZZZZZZZl                   .9lMZZZZZZZZZZZZZZZZZZZZZZZZZZZZZbi4+                                     +6smZZZZZZZZZZZZZZZZZZZZZZZZZZZZZZZZZZZZZ0              MZZZZZZZZZZZZZZ4                                       ",
"                                    aZZZZZZZZZZZZZZl                     OwzMZZZZZZZZZZZZZZZZZZZZZZZZZZZZCcu3o                                 o5pbZZZZZZZZZZZZZZZZZZZZZZZZZZZZZZZZZZZZZZZ0              MZZZZZZZZZZZZZZ4                                       ",
"                                    aZZZZZZZZZZZZZZl                       *tzNZZZZZZZZZZZZZZZZZZZZZZZZZZZZVxu1.                             .3pcCZZZZZZZZZZZZZZZZZZZZZZZZZZZZZZZZZZZZZZZZ0              MZZZZZZZZZZZZZZ4                                       ",
"                                    aZZZZZZZZZZZZZZl                        X,uxBZZZZZZZZZZZZZZZZZZZZZZZZZZZZBzy:                           <ixVZZZZZZZZZZZZZZZZZZZZZZZZZZZZZZZZZZZZZZZZZZ0              MZZZZZZZZZZZZZZ5                                       ",
"                                    aZZZZZZZZZZZZZZl                          O2pvCZZZZZZZZZZZZZZZZZZZZZZZZZZZZNlw%                       :yzNZZZZZZZZZZZZZZZZZZZZZZZZZZZZVZZZZZZZZZZZZZZZ0              MZZZZZZZZZZZZZZ5                                       ",
"                                    aZZZZZZZZZZZZZZl                            $6abCZZZZZZZZZZZZZZZZZZZZZZZZZZZCMk9o                   &ezNZZZZZZZZZZZZZZZZZZZZZZZZZZZZCviMZZZZZZZZZZZZZZ0              MZZZZZZZZZZZZZZ4                                       ",
"                                    aZZZZZZZZZZZZZZl                              %5amZZZZZZZZZZZZZZZZZZZZZZZZZZZZCMk3                @9lNCZZZZZZZZZZZZZZZZZZZZZZZZZZZCna4$nZZZZZZZZZZZZZZ0              MZZZZZZZZZZZZZZ4                                       ",
"                                    aZZZZZZZZZZZZZZl                                &4sNZZZZZZZZZZZZZZZZZZZZZZZZZZZZCNh>            .3jNCZZZZZZZZZZZZZZZZZZZZZZZZZZZZMs4&  bZZZZZZZZZZZZZZ0              MZZZZZZZZZZZZZZ4                                       ",
"                                    aZZZZZZZZZZZZZZl                                  &3gCZZZZZZZZZZZZZZZZZZZZZZZZZZZZCMs=         =gBCZZZZZZZZZZZZZZZZZZZZZZZZZZZZVg3&    bZZZZZZZZZZZZZZ0              MZZZZZZZZZZZZZZ4                                       ",
"                                    aZZZZZZZZZZZZZZl                                    #3kZZZZZZZZZZZZZZZZZZZZZZZZZZZZZCmu#     $aNZZZZZZZZZZZZZZZZZZZZZZZZZZZZZZk2@.     bZZZZZZZZZZZZZZ0              MZZZZZZZZZZZZZZ4                                       ",
"                                    aZZZZZZZZZZZZZZl                                      o7xZZZZZZZZZZZZZZZZZZZZZZZZZZZZZZbeO.OyMZZZZZZZZZZZZZZZZZZZZZZZZZZZZZZc2         bZZZZZZZZZZZZZZ0              MZZZZZZZZZZZZZZ4                                       ",
"                                    aZZZZZZZZZZZZZZl                                        %tbCZZZZZZZZZZZZZZZZZZZZZZZZZZZZCzabZZZZZZZZZZZZZZZZZZZZZZZZZZZZZCc7.          nZZZZZZZZZZZZZZ0              MZZZZZZZZZZZZZZ4                                       ",
"                                    aZZZZZZZZZZZZZZl                                          -inCZZZZZZZZZZZZZZZZZZZZZZZZZZZZZZZZZZZZZZZZZZZZZZZZZZZZZZZZZVbt$            nZZZZZZZZZZZZZZ0              MZZZZZZZZZZZZZZ4                                       ",
"                                    aZZZZZZZZZZZZZZl                                            <dmCZZZZZZZZZZZZZZZZZZZZZZZZZZZZZZZZZZZZZZZZZZZZZZZZZZZZZVna>              nZZZZZZZZZZZZZZ0              MZZZZZZZZZZZZZZ4                                       ",
"                                    aZZZZZZZZZZZZZZl                                              3gmCZZZZZZZZZZZZZZZZZZZZZZZZZZZZZZZZZZZZZZZZZZZZZZZZZCnf3.               nZZZZZZZZZZZZZZ0              MZZZZZZZZZZZZZZ4                                       ",
"                                    aZZZZZZZZZZZZZZl                                               .7jmZZZZZZZZZZZZZZZZZZZZZZZZZZZZZZZZZZZZZZZZZZZZZZCmh7X                 bZZZZZZZZZZZZZZ0              MZZZZZZZZZZZZZZ4                                       ",
"                                    aZZZZZZZZZZZZZZl                                                 o0kMZZZZZZZZZZZZZZZZZZZZZZZZZZZZZZZZZZZZZZZZZZZmjq+                   bZZZZZZZZZZZZZZ0              MZZZZZZZZZZZZZZ4                                       ",
"                                    aZZZZZZZZZZZZZZl                                                   $ekMZZZZZZZZZZZZZZZZZZZZZZZZZZZZZZZZZZZZZZZmhq#                     bZZZZZZZZZZZZZZ0              MZZZZZZZZZZZZZZ4                                       ",
"                                    aZZZZZZZZZZZZZZl                                                    .:tlNZZZZZZZZZZZZZZZZZZZZZZZZZZZZZZZZZZZNje&                       bZZZZZZZZZZZZZZ0              MZZZZZZZZZZZZZZ4                                       ",
"                                    aZZZZZZZZZZZZZZk                                                      o<yzVZZZZZZZZZZZZZZZZZZZZZZZZZZZZZZZBkr;                         nZZZZZZZZZZZZZZ0              MZZZZZZZZZZZZZZ4                                       ",
"                                    aZZZZZZZZZZZZZZk                                                        +2ucCZZZZZZZZZZZZZZZZZZZZZZZZZZZVzt,X                          nZZZZZZZZZZZZZZ0              MZZZZZZZZZZZZZZ4                                       ",
"                                    aZZZZZZZZZZZZZZk                                                          #2inZZZZZZZZZZZZZZZZZZZZZZZZCvt<O                            bZZZZZZZZZZZZZZ0              MZZZZZZZZZZZZZZ4                                       ",
"                                    aZZZZZZZZZZZZZZk                                                            #2pNZZZZZZZZZZZZZZZZZZZZZnu<@                              bZZZZZZZZZZZZZZ0              MZZZZZZZZZZZZZZ4                                       ",
"                                    aZZZZZZZZZZZZZZl                                                              @,sVZZZZZZZZZZZZZZZZZNa,+                                bZZZZZZZZZZZZZZ0              MZZZZZZZZZZZZZZ4                                       ",
"                                    aZZZZZZZZZZZZZZl                                                                X;hCZZZZZZZZZZZZZVf;X                                  bZZZZZZZZZZZZZZ0              MZZZZZZZZZZZZZZ4                                       ",
"                                    pZZZZZZZZZZZZZZl.                                                                 .4zCZZZZZZZZZCk,                                     nZZZZZZZZZZZZZZ0             XMZZZZZZZZZZZZZZ4                                       ",
"                                    pZZZZZZZZZZZZZZb7o                                                                  #evVZZZZCVz4                                       nZZZZZZZZZZZZZZ0            @eBZZZZZZZZZZZZZZ4                                       ",
"                                    uCZZZZZZZZZZZZZZc7O                                                                   &wkbnvg7o                                        nZZZZZZZZZZZZZZ0           +wMZZZZZZZZZZZZZZV2                                       ",
"                                    tBZZZZZZZZZZZZZZZx7O                                                                                                                   nZZZZZZZZZZZZZZ0          @wnZZZZZZZZZZZZZZZM1                                       ",
"                                    0nZZZZZZZZZZZZZZZZz6o                                                                                                                  bZZZZZZZZZZZZZZ0         #wnZZZZZZZZZZZZZZZZc>                                       ",
"                                    <zZZZZZZZZZZZZZZZZZz5o                                                                                                                 bZZZZZZZZZZZZZZ0        %ebZZZZZZZZZZZZZZZZZs&                                       ",
"                                    +dCZZZZZZZZZZZZZZZZZz6X                                                                                                                bZZZZZZZZZZZZZZ0       &rnZZZZZZZZZZZZZZZZZV0X                                       ",
"                                     9nZZZZZZZZZZZZZZZZZZc8.                                                                                                               bZZZZZZZZZZZZZZ0      *ymZZZZZZZZZZZZZZZZZZz,                                        ",
"                                     &gVZZZZZZZZZZZZZZZZZZbw                                                                                                               nZZZZZZZZZZZZZZ0     =aMZZZZZZZZZZZZZZZZZZBt+                                        ",
"                                      5cZZZZZZZZZZZZZZZZZZZMiX                                                                                                             nZZZZZZZZZZZZZZ0    -gBZZZZZZZZZZZZZZZZZZZj,                                         ",
"                                      oeMZZZZZZZZZZZZZZZZZZZBf$                                                                                                            bZZZZZZZZZZZZZZ0   :lVZZZZZZZZZZZZZZZZZZZc7X                                         ",
"                                       $pBZZZZZZZZZZZZZZZZZZZVl<                                                                                                           bZZZZZZZZZZZZZZ0  4bCZZZZZZZZZZZZZZZZZZZnw+                                          ",
"                                        %sVZZZZZZZZZZZZZZZZZZZZbq                                                                                                          bZZZZZZZZZZZZZZq rNZZZZZZZZZZZZZZZZZZZZMt@                                           ",
"                                         +fCZZZZZZZZZZZZZZZZZZZZNiO                                                                                                        bZZZZZZZZZZZZZZehVZZZZZZZZZZZZZZZZZZZZNyo                                            ",
"                                          .gZZZZZZZZZZZZZZZZZZZZZCj<.                                                                                                      bZZZZZZZZZZZZZZBZZZZZZZZZZZZZZZZZZZZZBi                                              ",
"                                           .gCZZZZZZZZZZZZZZZZZZZZZnw$.                                                                                                    bZZZZZZZZZZZZZZZZZZZZZZZZZZZZZZZZZZZNi                                               ",
"                                            .gVZZZZZZZZZZZZZZZZZZZZZBd3+                                                                                                   bZZZZZZZZZZZZZZZZZZZZZZZZZZZZZZZZZZNu                                                ",
"                                             .sBZZZZZZZZZZZZZZZZZZZZZZvr:.                                                                                                 bZZZZZZZZZZZZZZZZZZZZZZZZZZZZZZZZZMy                                                 ",
"                                              @pNZZZZZZZZZZZZZZZZZZZZZZVj9%                                                                                                nZZZZZZZZZZZZZZZZZZZZZZZZZZZZZZZZme                                                  ",
"                                               %uMZZZZZZZZZZZZZZZZZZZZZZZms7+                                                                                              nZZZZZZZZZZZZZZZZZZZZZZZZZZZZZZZb9                                                   ",
"                                                $rbZZZZZZZZZZZZZZZZZZZZZZZZva4X                                                                                            nZZZZZZZZZZZZZZZZZZZZZZZZZZZZZCx6                                                    ",
"                                                 #0xCZZZZZZZZZZZZZZZZZZZZZZZVcp4o                                                                                          nZZZZZZZZZZZZZZZZZZZZZZZZZZZZVk2.                                                    ",
"                                                  o5kVZZZZZZZZZZZZZZZZZZZZZZZZVca3o                                                                                       OnZZZZZZZZZZZZZZZZZZZZZZZZZZZNf,.                                                     ",
"                                                   .1sMZZZZZZZZZZZZZZZZZZZZZZZZZBvd5+                                                                                   &qjBZZZZZZZZZZZZZZZZZZZZZZZZZZnu-                                                       ",
"                                                     -tnZZZZZZZZZZZZZZZZZZZZZZZZZZVnjq#                                                                               ;tzMCZZZZZZZZZZZZZZZZZZZZZZZZZCx0%                                                        ",
"                                                      @7xCZZZZZZZZZZZZZZZZZZZZZZZZZZCNci-                                                                          O5fbBCZZZZZZZZZZZZZZZZZZZZZZZZZZBg2O                                                         ",
"                                                       X>aVZZZZZZZZZZZZZZZZZZZZZZZZZZZZVNle$                                                                     &yxNCZZZZZZZZZZZZZZZZZZZZZZZZZZZZmt=.                                                          ",
"                                                         #6nZZZZZZZZZZZZZZZZZZZZZZZZZZZZZZCNh9@                                                               *tzBCZZZZZZZZZZZZZZZZZZZZZZZZZZZZZCx4+                                                            ",
"                                                           +gZZZZZZZZZZZZZZZZZZZZZZZZZZZZZZZZZBlr-                                                         ,uxCZZZZZZZZZZZZZZZZZZZZZZZZZZZZZZZZBiO                                                              ",
"                                                            X9nZZZZZZZZZZZZZZZZZZZZZZZZZZZZZZZZZZVvd0-&$o.                                         .O#%,ejmZZZZZZZZZZZZZZZZZZZZZZZZZZZZZZZZZZZv1                                                                ",
"                                                              -fNZZZZZZZZZZZZZZZZZZZZZZZZZZZZZZZZZZZZCnju51>-&@.                             o#*;,19alnCZZZZZZZZZZZZZZZZZZZZZZZZZZZZZZZZZZZCNi.                                                                 ",
"                                                               O9xVZZZZZZZZZZZZZZZZZZZZZZZZZZZZZZZZZZZZZZZBnzfu06532<:-&&$@+o. XoO@#&*;><2357wpgznVZZZZZZZZZZZZZZZZZZZZZZZZZZZZZZZZZZZZZZZBj<                                                                   ",
"                                                                 ;ivVZZZZZZZZZZZZZZZZZZZZZZZZZZZZZZZZZZZZZZZZZZZVNmvxkgsapiuyrettyiisdhkxvnNCZZZZZZZZZZZZZZZZZZZZZZZZZZZZZZZZZZZZZZZZZZZZZu@                                                                    ",
"                                                                   1dnCZZZZZZZZZZZZZZZZZZZZZZZZZZZZZZZZZZZZZZZZZZZZZZZZZZZZZZZZZZZZZZZZZZZZZZZZZZZZZZZZZZZZZZZZZZZZZZZZZZZZZZZZZZZZZZZZZZZ0                                                                     ",
"                                                                    X7hbCZZZZZZZZZZZZZZZZZZZZZZZZZZZZZZZZZZZZZZZZZZZZZZZZZZZZZZZZZZZZZZZZZZZZZZZZZZZZZZZZZZZZZZZZZZZZZZZZZZZZZZZZZZZZZZZZZ0                                                                     ",
"                                                                      +8fbCZZZZZZZZZZZZZZZZZZZZZZZZZZZZZZZZZZZZZZZZZZZZZZZZZZZZZZZZZZZZZZZZZZZZZZZZZZZZZZZZZZZZZZZZZZZZZZZZZZZZZZZZZZZZZZZ0                                                                     ",
"                                                                        +8dbCZZZZZZZZZZZZZZZZZZZZZZZZZZZZZZZZZZZZZZZZZZZZZZZZZZZZZZZZZZZZZZZZZZZZZZZZZZZZZZZZZZZZZZZZZZZZZZZZZZZZZZZZZZZZZ0                                                                     ",
"                                                                          +8axBZZZZZZZZZZZZZZZZZZZZZZZZZZZZZZZZZZZZZZZZZZZZZZZZZZZZZZZZZZZZZZZZZZZZZZZZZZZZZZZZZZZZZZZZZZZZZZZZZZZZZZZZZZZ0                                                                     ",
"                                                                            +3tjMZZZZZZZZZZZZZZZZZZZZZZZZZZZZZZZZZZZZZZZZZZZZZZZZZZZZZZZZZZZZZZZZZZZZZZZZZZZZZZZZZZZZZZZZZZZZZZZZZZZZZZZZZ0                                                                     ",
"                                                                              o>9dbCZZZZZZZZZZZZZZZZZZZZZZZZZZZZZZZZZZZZZZZZZZZZZZZZZZZZZZZZZZZZZZZZZZZZZZZZZZZZZZZZZZZZZVcBZZZZZZZZZZZZZZ0                                                                     ",
"                                                                                .*2qgMZZZZZZZZZZZZZZZZZZZZZZZZZZZZZZZZZZZZZZZZZZZZZZZZZZZZZZZZZZZZZZZZZZZZZZZZZZZZZZZZCnf9<nZZZZZZZZZZZZZZ0                                                                     ",
"                                                                                   X&,elVZZZZZZZZZZZZZZZZZZZZZZZZZZZZZZZZZZZZZZZZZZZZZZZZZZZZZZZZZZZZZZZZZZZZZZZZZZZmg0>&X nZZZZZZZZZZZZZZ0                                                                     ",
"                                                                                      X@&0jmZZZZZZZZZZZZZZZZZZZZZZZZZZZZZZZZZZZZZZZZZZZZZZZZZZZZZZZZZZZZZZZZZZZZZmg6%+X    nZZZZZZZZZZZZZZ0                                                                     ",
"                                                                                           o4dbCZZZZZZZZZZZZZZZZZZZZZZZZZZZZZZZZZZZZZZZZZZZZZZZZZZZZZZZZZZZZZBxi>          nZZZZZZZZZZZZZZ0                                                                     ",
"                                                                                               -wfcNVCZZZZZZZZZZZZZZZZZZZZZZZZZZZZZZZZZZZZZZZZZZZZZZZZCCVMcs6@             bZZZZZZZZZZZZZZ0                                                                     ",
"                                                                                                   #7pkvMBBCCZZZZZZZZZZZZZZZZZZZZZZZZZZZZZZZZZZZCVBBMvhy4@                 nZZZZZZZZZZZZZZ0                                                                     ",
"                                                                                                        @3eajxnmMNNBVVCCCZZZZZZZZZZZZCCVVBBNMmbxjae4@                      bZZZZZZZZZZZZZZ0                                                                     ",
"                                                                                                              o=38euaghjklzxxcvvcccczkhfdpt04-X                            bZZZZZZZZZZZZZZ0                                                                     ",
"                                                                                                                                                                           bZZZZZZZZZZZZZZ0                                                                     ",
"                                                                                                                                                                           bZZZZZZZZZZZZZZ0                                                                     ",
"                                                                                                                                                                           bZZZZZZZZZZZZZZ0                                                                     ",
"                                                                                                                                                                           bZZZZZZZZZZZZZZ0                                                                     ",
"                                                                                                                                                                           bZZZZZZZZZZZZZZ0                                                                     ",
"                                                                                                                                                                           bZZZZZZZZZZZZZZ0                                                                     ",
"                                                                                                                                                                           bZZZZZZZZZZZZZZ0                                                                     ",
"                                                                                                                                                                           bZZZZZZZZZZZZZZ0                                                                     ",
"                                                                                                                                                                           bZZZZZZZZZZZZZZ0                                                                     ",
"                                                                                                                                                                           bZZZZZZZZZZZZZZ0                                                                     ",
"                                                                                                                                                                           nZZZZZZZZZZZZZZ0                                                                     ",
"                                                                                                                                                                           nZZZZZZZZZZZZZZ0                                                                     ",
"                                                                                                                                                                           nZZZZZZZZZZZZZZ0                                                                     ",
"                                                                                                                                                                           nZZZZZZZZZZZZZZ0                                                                     ",
"                                                                                                                                                                           bZZZZZZZZZZZZZZ0                                                                     ",
"                                                                                                                                                                           bZZZZZZZZZZZZZZ0                                                                     ",
"                                                                                                                                                                           bZZZZZZZZZZZZZZ0                                                                     ",
"                                                                                                                                                                           bZZZZZZZZZZZZZZ0                                                                     ",
"                                                                                                                                                                           bZZZZZZZZZZZZZZ0                                                                     ",
"                                                                                                                                                                           bZZZZZZZZZZZZZZ0                                                                     ",
"                                                                                                                                                                           bZZZZZZZZZZZZZZ0                                                                     ",
"                                                                                                                                                                           bZZZZZZZZZZZZZZ0                                                                     ",
"                                                                                                                                                                           bZZZZZZZZZZZZZZ0                                                                     ",
"                                                                                                                                                                           zZZZZZZZZZZZZZB8                                                                     ",
"                                                                                                                                                                           sVZZZZZZZZZZZZc2                                                                     ",
"                                                                                                                                                                           2mZZZZZZZZZZZCp$                                                                     ",
"                                                                                                                                                                            aBZZZZZZZZZZx4                                                                      ",
"                                                                                                                                                                            OgBZZZZZZZCb9.                                                                      ",
"                                                                                                                                                                             OpbNCZZVMk7.                                                                       ",
"                                                                                                                                                                               1ijlkfq=                                                                         ",
"                                                                                                                                                                                                                                                                ",
"                                                                                                                                                                                                                                                                ",
"                                                                                                                                                                                                                                                                ",
"                                                                                                                                                                                                                                                                ",
"                                                                                                                                                                                                                                                                ",
"                                                                                                                                                                                                                                                                ",
"                                                                                                                                                                                                                                                                ",
"                                                                                                                                                                                                                                                                ",
"                                                                                                                                                                                                                                                                ",
"                                                                                                                                                                                                                                                                ",
"                                                                                                                                                                                                                                                                ",
"                                                                                                                                                                                                                                                                ",
"                                                                                                                                                                                                                                                                ",
"                                                                                                                                                                                                                                                                ",
"                                                                                                                                                                                                                                                                ",
"                                                                                                                                                                                                                                                                ",
"                                                                                                                                                                                                                                                                ",
"                                                                                                                                                                                                                                                                ",
"                                                                                                                                                                                                                                                                ",
"                                                                                                                                                                                                                                                                "
};
